images/webfig-vm-1.svg

<svg data-name="C1" viewBox="0 0 256 256" xml:space="preserve" width="256" height="256" xmlns="http://www.w3.org/2000/svg"><path style="fill:none" d="M0 0h256v256H0Z"/><g transform="translate(9.237 15.175)scale(11.87626)"><path fill="none" stroke="#145656" stroke-linecap="round" stroke-linejoin="round" stroke-width="1.5" d="M15 7h3v11H2V7h3"/><path fill="none" stroke="#3ca384" stroke-linecap="round" stroke-linejoin="round" stroke-width="1.5" d="M15 3v6l-5 2-5-2V3"/><path fill="none" stroke="#3ca384" stroke-linecap="round" stroke-linejoin="round" stroke-width="1.5" d="m10 1 5 2-5 2-5-2Zm0 4v6"/><circle cx="15" cy="15" r="1" fill="#145656"/><path fill="none" stroke="#145656" stroke-linecap="round" stroke-linejoin="round" stroke-width="1.5" d="M2 14h10"/></g></svg>

<?xml version="1.0" encoding="UTF-8" standalone="no"?>
<svg
   data-name="Capa 1"
   viewBox="0 0 256 256"
   version="1.1"
   id="svg8"
   xml:space="preserve"
   width="256"
   height="256"
   xmlns="http://www.w3.org/2000/svg"
   xmlns:svg="http://www.w3.org/2000/svg"><defs
     id="defs2" /><path
     style="fill:none"
     d="M 0,0 H 256 V 256 H 0 Z"
     id="path2" /><g
     id="g8"
     transform="matrix(11.876261,0,0,11.876261,9.23739,15.175486)"><path
       fill="none"
       stroke="#145656"
       stroke-linecap="round"
       stroke-linejoin="round"
       stroke-width="1.5"
       d="m 15,7 h 3 V 18 H 2 V 7 h 3"
       id="path1" /><path
       fill="none"
       stroke="#3ca384"
       stroke-linecap="round"
       stroke-linejoin="round"
       stroke-width="1.5"
       d="M 15,3 V 9 L 10,11 5,9 V 3"
       id="path2-8" /><path
       fill="none"
       stroke="#3ca384"
       stroke-linecap="round"
       stroke-linejoin="round"
       stroke-width="1.5"
       d="M 10,1 15,3 10,5 5,3 Z m 0,4 v 6"
       id="path3-2" /><circle
       cx="15"
       cy="15"
       r="1"
       fill="#145656"
       id="circle3" /><path
       fill="none"
       stroke="#145656"
       stroke-linecap="round"
       stroke-linejoin="round"
       stroke-width="1.5"
       d="M 2,14 H 12"
       id="path4-4" /></g></svg>
